icons/2_Variations/Neopets bg.var.svg

<svg width="1024" height="1024" viewBox="0 0 1024 1024" fill="none" xmlns="http://www.w3.org/2000/svg">
<g clip-path="url(#clip0_3_176)">
<path d="M512 1024C794.77 1024 1024 794.77 1024 512C1024 229.23 794.77 0 512 0C229.23 0 0 229.23 0 512C0 794.77 229.23 1024 512 1024Z" fill="#F8C18C"/>
<path d="M310.07 522.48C314.43 541.207 316.097 557.303 315.07 570.77H291.79C292.943 531.39 281.277 510.483 256.79 508.05C234.857 507.283 225.367 527.74 228.32 569.42H202.13C200.077 517.86 208.99 488.55 228.87 481.49C248.75 474.563 266.193 474.947 281.2 482.64C296.08 490.347 305.703 503.627 310.07 522.48ZM414.73 538.83L421.08 554.03C414.026 563.263 403.06 569.42 388.18 572.5C373.3 575.32 357.967 574.23 342.18 569.23C326.393 564.23 318.183 551.917 317.55 532.29C317.183 521.003 318.28 511.573 320.84 504C322.253 498.867 325.587 494.953 330.84 492.26C335.973 489.44 345.08 487.13 358.16 485.33C371.21 483.277 384.532 483.735 397.41 486.68C411.777 491.3 419.473 499.51 420.5 511.31C421.267 523.11 419.343 529.907 414.73 531.7H339.31C339.437 547.987 349.437 556.13 369.31 556.13C389.33 556.27 404.47 550.507 414.73 538.84V538.83ZM352 512.28H395.67C395.41 502.66 387.65 498.043 372.39 498.43C358.29 499.07 351.493 503.687 352 512.28ZM650 527.48C648.587 559.673 621.973 575.067 570.16 573.66L572.08 607.52H542.87V487.27H602.7C637.46 487.403 653.227 500.807 650 527.48ZM620 524.59C619.233 510.35 603.52 503.683 572.86 504.59L570 549.22C601.293 549.353 617.96 541.147 620 524.6V524.59ZM537.46 526.51V526.7C537.46 539.78 532.33 551.003 522.07 560.37C511.683 569.603 499.24 574.22 484.74 574.22H476.85C462.357 574.22 449.98 569.603 439.72 560.37C429.46 551.037 424.33 539.813 424.33 526.7V526.51C424.33 513.297 429.077 502.78 438.57 494.96C444.641 489.884 451.556 485.914 459 483.23C465.964 481.318 473.139 480.284 480.36 480.15C486.549 479.778 492.76 480.232 498.83 481.5C507.691 483.426 515.908 487.6 522.69 493.62C527.444 497.661 531.238 502.71 533.797 508.401C536.355 514.092 537.613 520.282 537.48 526.52L537.46 526.51ZM506.68 524.2C506.703 522.227 506.322 520.271 505.56 518.451C504.798 516.632 503.672 514.987 502.25 513.62C500.899 512.242 499.28 511.156 497.493 510.429C495.706 509.701 493.789 509.348 491.86 509.39H474.57C470.756 509.452 467.108 510.964 464.37 513.62C462.948 514.987 461.821 516.632 461.059 518.451C460.297 520.271 459.916 522.227 459.94 524.2V533.05C459.929 534.993 460.317 536.917 461.079 538.704C461.841 540.491 462.961 542.103 464.37 543.44C467.053 546.203 470.719 547.796 474.57 547.87H475C476.28 547.997 477.69 548.19 479.23 548.45H487.5C488.913 548.323 490.39 548.13 491.93 547.87C493.876 547.905 495.808 547.528 497.598 546.765C499.389 546.001 500.998 544.868 502.32 543.44C503.729 542.103 504.849 540.491 505.611 538.704C506.373 536.917 506.76 534.993 506.75 533.05L506.68 524.2ZM867.23 523.82C860.17 520.687 856.58 516.967 856.46 512.66C856.46 508.493 859.536 506.377 865.69 506.31C871.863 506.35 875.53 508.98 876.69 514.2L894.58 505.73C894.706 499.19 891.243 494.19 884.19 490.73C880.57 488.886 876.671 487.649 872.65 487.07C857.897 483.863 846.097 487.197 837.25 497.07C828.397 506.817 827.5 515.923 834.56 524.39C841.613 532.73 849.247 539.013 857.46 543.24C865.8 547.347 868.366 551.067 865.16 554.4C861.826 557.733 855.03 556.963 844.77 552.09L831.85 560C834.517 566.8 842.15 571.93 854.75 575.39C867.35 578.85 878.123 575.58 887.07 565.58C896.036 555.527 896.743 546.86 889.19 539.58C881.73 532.333 874.417 527.083 867.25 523.83L867.23 523.82ZM800.85 510.35C810.183 531.77 808.58 543.437 796.04 545.35C786.546 546.117 781.096 541.05 779.69 530.15C777.688 515.618 776.915 500.942 777.38 486.28H803.16V466.69L777.16 467.07L780.82 442.83L753.31 445.14L756 470L725.6 467.88V488.66H757.54C754.333 524.96 756.643 548.753 764.47 560.04C772.163 571.327 782.747 576.66 796.22 576.04C817.127 575.653 827.837 565.393 828.35 545.26C828.35 530.127 825.463 517.75 819.69 508.13L800.85 510.35ZM747 538.45L754.7 551.34C749.187 560.673 739.567 567.6 725.84 572.12C712.373 576.227 698.007 576.867 682.74 574.04C667.607 571.087 658.693 560.753 656 543.04C654.333 532.653 654.526 524.653 656.58 519.04C658.76 513.267 661.903 508.84 666.01 505.76C670.01 502.553 677.77 499.347 689.29 496.14C700.976 492.79 713.191 491.68 725.29 492.87C739.143 495.537 747.143 502.203 749.29 512.87C751.343 523.537 750.317 529.87 746.21 531.87L676 540C677.927 554.88 688.187 561.293 706.78 559.24C725.373 557.187 738.78 550.257 747 538.45ZM685.82 519.6C685.827 520.181 685.89 520.761 686.01 521.33L726.22 516.33C724.293 508.637 716.66 505.813 703.32 507.86C692.033 509.653 686.2 513.567 685.82 519.6ZM375.42 454.48L414 437.9L453.65 471.41L444.9 432.5L443.37 426L477.62 405.15H438.34L430.71 377L409.12 405.3H375.23L395.52 424.3L375.42 454.48ZM228.13 466.86L252.84 444L291.84 458.73L274.84 431.64L271.97 427.11L292.3 402.17L289.91 403.02L262.59 412.69L249.29 393.47L240.53 420.66L218 428.66L214.9 429.76L235.33 438.69L228.13 466.86ZM151.78 493.71L160.44 468.35L158.83 469.68L140.42 484.8L124.67 473.15L125.6 497.15L110.47 509.58L108.34 511.33L126.69 512.86L129.16 537.21L141.81 512.32L176.15 513.41L155.28 496.53L151.78 493.71Z" fill="white"/>
</g>
<defs>
<clipPath id="clip0_3_176">
<rect width="1024" height="1024" fill="white"/>
</clipPath>
</defs>
</svg>

<svg xmlns="http://www.w3.org/2000/svg" viewBox="0 0 1024 1024">
   <circle cx="512" cy="512" r="512" style="fill:#faa819"/>
   <path d="M310.07 522.48q6.54 28.09 5 48.29h-23.28q1.73-59.07-35-62.72-32.9-1.15-28.47 61.37h-26.19q-3.08-77.34 26.74-87.93 29.82-10.39 52.33 1.15 22.32 11.56 28.87 39.84Zm104.66 16.35 6.35 15.2q-10.58 13.85-32.9 18.47-22.32 4.23-46-3.27t-24.63-36.94q-.55-16.93 3.29-28.29 2.12-7.7 10-11.74 7.7-4.23 27.32-6.93a103.76 103.76 0 0 1 39.25 1.35q21.55 6.93 23.09 24.63 1.15 17.7-5.77 20.39h-75.42q.19 24.43 30 24.43 30.03.21 45.42-17.29ZM352 512.28h43.67q-.39-14.43-23.28-13.85-21.15.96-20.39 13.85Zm298 15.2q-2.12 48.29-79.84 46.18l1.92 33.86h-29.21V487.27h59.83q52.14.2 47.3 40.21Zm-30-2.89q-1.15-21.36-47.14-20L570 549.22q46.94.2 50-24.62Zm-82.54 1.92v.19q0 19.62-15.39 33.67-15.58 13.85-37.33 13.85h-7.89q-21.74 0-37.13-13.85-15.39-14-15.39-33.67v-.19q0-19.82 14.24-31.55A67.58 67.58 0 0 1 459 483.23a86.76 86.76 0 0 1 21.36-3.08 69.81 69.81 0 0 1 18.47 1.35 52.85 52.85 0 0 1 23.86 12.12 42 42 0 0 1 14.79 32.9Zm-30.78-2.31a14.44 14.44 0 0 0-4.43-10.58 14.12 14.12 0 0 0-10.39-4.23h-17.29a15 15 0 0 0-10.2 4.23 14.44 14.44 0 0 0-4.43 10.58v8.85a14.22 14.22 0 0 0 4.43 10.39 14.61 14.61 0 0 0 10.2 4.43h.43q1.92.19 4.23.58h8.27q2.12-.19 4.43-.58a13.82 13.82 0 0 0 10.39-4.43 14.22 14.22 0 0 0 4.43-10.39Zm360.55-.38q-10.59-4.7-10.77-11.16 0-6.25 9.23-6.35 9.26.06 11 7.89l17.89-8.47q.19-9.81-10.39-15a37.05 37.05 0 0 0-11.54-3.66q-22.13-4.81-35.4 10-13.28 14.62-2.69 27.32 10.58 12.51 22.9 18.85 12.51 6.16 7.7 11.16-5 5-20.39-2.31L831.85 560q4 10.2 22.9 15.39t32.32-9.81q13.45-15.08 2.12-26-11.19-10.87-21.94-15.75Zm-66.38-13.47q14 32.13-4.81 35-14.24 1.15-16.35-15.2a260.88 260.88 0 0 1-2.31-43.87h25.78v-19.59l-26 .38 3.66-24.24-27.51 2.31L756 470l-30.4-2.12v20.78h31.94q-4.81 54.45 6.93 71.38 11.54 16.93 31.75 16 31.36-.58 32.13-30.78 0-22.7-8.66-37.13ZM747 538.45l7.7 12.89q-8.27 14-28.86 20.78-20.2 6.16-43.1 1.92-22.7-4.43-26.74-31-2.5-15.58.58-24 3.27-8.66 9.43-13.28 6-4.81 23.28-9.62a96.41 96.41 0 0 1 36-3.27q20.78 4 24 20 3.08 16-3.08 19L676 540q2.89 22.32 30.78 19.24T747 538.45Zm-61.18-18.85a8.92 8.92 0 0 0 .19 1.73l40.21-5q-2.89-11.54-22.9-8.47-16.93 2.69-17.5 11.74Zm-310.4-65.12L414 437.9l39.65 33.51-8.75-38.91-1.53-6.5 34.25-20.85h-39.28L430.71 377l-21.59 28.3h-33.89l20.29 19Zm-147.29 12.38L252.84 444l39 14.73-17-27.09-2.87-4.53 20.33-24.94-2.39.85-27.32 9.67-13.3-19.22-8.76 27.19-22.53 8-3.1 1.1 20.43 8.93Zm-76.35 26.85 8.66-25.36-1.61 1.33-18.41 15.12-15.75-11.65.93 24-15.13 12.43-2.13 1.75 18.35 1.53 2.47 24.35 12.65-24.89 34.34 1.09-20.87-16.88Z" style="fill:#fff"/>
</svg>
